packages/icon/src/svg/social-medium.icon.svg

<svg width="24" height="24" viewBox="0 0 24 24" fill="none" xmlns="http://www.w3.org/2000/svg">
<path d="M4.37 7.30006C4.4 7.05006 4.3 6.81006 4.12 6.65006L2.25 4.40006V4.06006H8.05L12.53 13.8901L16.47 4.06006H22V4.40006L20.4 5.93006C20.27 6.03006 20.2 6.21006 20.23 6.38006V17.6201C20.2 17.7901 20.27 17.9701 20.4 18.0701L21.96 19.6001V19.9401H14.12V19.6001L15.73 18.0301C15.89 17.8801 15.89 17.8301 15.89 17.5901V8.50006L11.4 19.9001H10.8L5.57 8.50006V16.1401C5.5 16.4601 5.63 16.7801 5.86 17.0001L7.96 19.5701V19.9001H2V19.5701L4.1 17.0001C4.33 16.7801 4.43 16.4601 4.37 16.1401V7.30006Z" fill="white"/>
</svg>

<svg aria-label="social medium icon" viewBox="0 0 24 24"><path d="M4.37 7.3a.75.75 0 00-.25-.65L2.25 4.4v-.34h5.8l4.48 9.83 3.94-9.83H22v.34l-1.6 1.53c-.13.1-.2.28-.17.45v11.24c-.03.17.04.35.17.45l1.56 1.53v.34h-7.84v-.34l1.61-1.57c.16-.15.16-.2.16-.44V8.5L11.4 19.9h-.6L5.57 8.5v7.64c-.07.32.06.64.29.86l2.1 2.57v.33H2v-.33L4.1 17a.94.94 0 00.27-.86V7.3z"/></svg>
